public/static/img/crypto/OP.svg

<svg width="48" height="48" viewBox="0 0 48 48" fill="none" xmlns="http://www.w3.org/2000/svg">
<path d="M24 0C37.2542 0 48 10.7453 48 24C48 37.2547 37.2542 48 24 48C10.7448 48 1.60809e-08 37.2542 1.60809e-08 24C-0.000479984 10.7453 10.7448 0 24 0Z" fill="#F23838"/>
<path d="M26.0898 16.499H33.1689C36.6172 16.499 38.9375 18.7012 38.9375 22.1494C38.9375 25.5654 36.4775 27.7676 32.8574 27.7676H30.6445V32H26.0898V16.499ZM30.6445 19.9258V24.4053H31.9229C33.4375 24.4053 34.3398 23.6426 34.3398 22.1602C34.3398 20.6885 33.4375 19.9258 31.9551 19.9258H30.6445Z" fill="white"/>
<path d="M16.5078 16.2305C21.2988 16.2305 24.3174 19.3027 24.3174 24.2549C24.3174 29.207 21.2988 32.2686 16.5078 32.2686C11.7061 32.2686 8.69824 29.207 8.69824 24.2549C8.69824 19.3027 11.7168 16.2305 16.5078 16.2305ZM16.5078 19.8613C14.6064 19.8613 13.3389 21.5693 13.3389 24.2549C13.3389 26.9297 14.5957 28.6377 16.5078 28.6377C18.4199 28.6377 19.6768 26.9297 19.6768 24.2549C19.6768 21.5693 18.4092 19.8613 16.5078 19.8613Z" fill="white"/>
</svg>

<svg width="48" height="48" fill="none" xmlns="http://www.w3.org/2000/svg"><path d="M24 0c13.254 0 24 10.745 24 24S37.254 48 24 48C10.745 48 0 37.254 0 24 0 10.745 10.745 0 24 0Z" fill="#F23838"/><path d="M26.09 16.499h7.079c3.448 0 5.769 2.202 5.769 5.65 0 3.416-2.46 5.619-6.08 5.619h-2.213V32H26.09V16.499Zm4.555 3.427v4.48h1.278c1.515 0 2.417-.763 2.417-2.246 0-1.471-.903-2.234-2.385-2.234h-1.31ZM16.508 16.23c4.79 0 7.81 3.073 7.81 8.025s-3.02 8.014-7.81 8.014c-4.802 0-7.81-3.062-7.81-8.014s3.019-8.024 7.81-8.024Zm0 3.631c-1.902 0-3.17 1.708-3.17 4.394 0 2.675 1.258 4.383 3.17 4.383s3.169-1.708 3.169-4.383c0-2.686-1.268-4.394-3.17-4.394Z" fill="#fff"/></svg>
